X: 1
T: John Lardiner's
M: 4/4
L: 1/8
R: reel
K: Gmaj
|:G2 BG AGFA|GBdf g2fg|afdf gdBd|cBAG FGDF|
G2 BG AGFA|GBdf g2fg|afdf gdBd|cAFA G3z:|
|:D2 FD ADFA|G2DG G2DG|A2e^c Ae^cA|d^cde fdfa|
g3d egdB|cdef g2fg|afdf gdBd|cAFA G3z:|
